fs/comment_multiple_checkmark_28_filled.svg

<svg viewBox="0 0 28 28" fill="none" xmlns="http://www.w3.org/2000/svg" height="1em" width="1em">
  <path d="M13 20.5C13 21.1926 13.0939 21.8633 13.2696 22.5H12.2532L8.00755 25.7347C7.18474 26.3617 6 25.7749 6 24.7405V22.5H5.75C3.67893 22.5 2 20.8211 2 18.75V9.75977C2 7.6887 3.67893 6.00977 5.75 6.00977H18.25C20.3211 6.00977 22 7.6887 22 9.75977V13.15C21.5153 13.0516 21.0137 13 20.5 13C16.3579 13 13 16.3579 13 20.5ZM25.25 7.75977V14.6956C24.5856 14.1512 23.826 13.7187 23 13.4268V9.75977C23 7.13641 20.8734 5.00977 18.25 5.00977H6.84451C7.17755 3.71585 8.35212 2.75977 9.75 2.75977H20.25C23.0114 2.75977 25.25 4.99834 25.25 7.75977ZM27 20.5C27 16.9101 24.0899 14 20.5 14C16.9101 14 14 16.9101 14 20.5C14 24.0899 16.9101 27 20.5 27C24.0899 27 27 24.0899 27 20.5ZM24.3536 17.6464C24.5488 17.8417 24.5488 18.1583 24.3536 18.3536L19.3536 23.3536C19.1583 23.5488 18.8417 23.5488 18.6464 23.3536L16.6464 21.3536C16.4512 21.1583 16.4512 20.8417 16.6464 20.6464C16.8417 20.4512 17.1583 20.4512 17.3536 20.6464L19 22.2929L23.6464 17.6464C23.8417 17.4512 24.1583 17.4512 24.3536 17.6464Z" fill="#212121"/>
</svg>

<svg viewBox="0 0 28 28" fill="none" xmlns="http://www.w3.org/2000/svg" height="1em" width="1em">
  <path d="M13 20.5c0 .693.094 1.363.27 2h-1.017l-4.245 3.235c-.823.627-2.008.04-2.008-.994V22.5h-.25A3.75 3.75 0 0 1 2 18.75V9.76a3.75 3.75 0 0 1 3.75-3.75h12.5A3.75 3.75 0 0 1 22 9.76v3.39a7.5 7.5 0 0 0-9 7.35ZM25.25 7.76v6.936a7.487 7.487 0 0 0-2.25-1.27V9.76a4.75 4.75 0 0 0-4.75-4.75H6.845A3.001 3.001 0 0 1 9.75 2.76h10.5a5 5 0 0 1 5 5ZM27 20.5a6.5 6.5 0 1 0-13 0 6.5 6.5 0 0 0 13 0Zm-2.646-2.854a.5.5 0 0 1 0 .708l-5 5a.5.5 0 0 1-.708 0l-2-2a.5.5 0 0 1 .708-.708L19 22.293l4.646-4.647a.5.5 0 0 1 .708 0Z" fill="#212121"/>
</svg>
